X:272
T:Gee Ho Dobbin. JaW.272
M:6/8
L:1/8
Q:3/8=100
S:James Winder Ms, Lancashire, 1835-41
R:.Jig
O:England
A:Wyresdale,Lancashire
N:You may need to tweak this a little to make sense of the B strain, but
N:I can see several different interpretations so it’s up to you…CGP
Z:vmp.Chris Partington, Aug 2004
K:D
“_Key Sig G in MS”A|FED AGF|BAG A2A|dcd Bcd|ecA d2:|!
|:d|def Bcd|e>cA B3|d3 A>BA|A>GF (GE)F|!
G3 F3|A2″sic” F<D G2|B2 G<E F2|”sic”A GFE|Ddc d4:|

